!!! OTL: Berkowitz189
!!! Chapter: 1
!!! Section: II
!!! Page: 45
!!! Mode: 
!!! Encoder: DJB
**kern
*staff1
*I"Piano
=1-
*clefF4
*k[b-e-a-d-]
*A-:
*M3/4
4AA-/
4r
4C/
=2
4AA-/
4r
4E-\
=3
4C/
4r
4A-\
=4
8G\L
8F\J
8E-\L
8D-\J
8C/L
8BB-/J
=5
4AA-/
4r
4D-\
=6
4AA-/
4r
4F\
=7
4D-\
4r
4A-\
=8
8G\L
8F\J
8E-\L
8D-\J
8C/L
8BB-/J
=9
4AA-/
4r
4E-\
=10
!!linebreak:original
4BB-/
4r
4E-\
=11
4BB-/
4r
4E-\
=12
4AA-/
8BB-/L
8C/J
8D-/L
8BB-/J
=13
4AA-/
2r
==
*-
